!!!OTL: Der betruegerische Freier Stolz Heinrich der wollt' freien gehn
!!!ARE: Europa, Mitteleuropa, Deutschland (BRD), Rheinprovinz
!!!YOR: 2, S. 115
!!    1893 gedruckt in Leipzig (frueher aufgezeichnet)
!!!SCT: Q0042
!!!YEM: Copyright 1995, estate of Helmut Schaffrath.
**kern
*ICvox
*Ivox
*M2/4
*k[]
*a:
{8e
=1
8a
8ccn
8b
8a
=2
8a
8g#
8g#}
{8e
=3
8a
8b
8ccn
8dd
=4
4b
8r}
{8a
=5
8ccn
8b
8ccn
8a
=6
4dd
4ee}
=7
{8.a
16b
8ccn
8a
=8
8g#
8fn
8e}
{8b
=9
8ccn
8b
8ccn
8a
=10
4dd
8ee}
{8ccn
=11
8b
8a
8g#
8b
=12
4a
8r}
==
!!!AGN: Ballade, Braut - Werbung, Betrug; tragisch
!! Kleinere Melodievarianten aus anderer Quelle abgedruckt.
!!    Vierte Zeile = Refrain.
!!!ONB: ESAC (Essen Associative Code) Database: BALLADE
!!!AMT: simple duple
!!!AIN: vox
!!!EED: Helmut Schaffrath
!!!EEV: 1.0
*-
